X:10040015
T:Pach Pi S1.1 Shep 19.2  Em fr Am
M:4/4
C:Brittany (fr Shepherd p19#2)
G:Lark15
K:Em
L:1/8
Q:1/4=220  "    Drone E"
|: E2 F2 G2 FG | AGFG E2 D2 |  E2 F2 G4 | FEDF E4  :|
|: B2 B2 A2 FG| AGFG E2 D2 |B2 B2 A2 B2 | B2 GF E4 :|

